dist/svgs/crypto-icons/icons/nbt.svg

<?xml version="1.0" encoding="UTF-8" standalone="yes"?>
<svg xmlns="http://www.w3.org/2000/svg" xmlns:xlink="http://www.w3.org/1999/xlink" width="512px" height="512px" viewBox="0 0 384 384" version="1.1">
  <g id="surface1">
    <path style=" stroke:none;fill-rule:nonzero;fill:rgb(0%,0%,0%);fill-opacity:1;" d="M 349.40625 82.691406 L 278.875 311.042969 L 259.683594 249.070312 L 321.167969 50.316406 C 318.519531 47.894531 315.804688 45.546875 313.027344 43.273438 L 254.390625 231.964844 L 235.195312 169.953125 L 281.292969 22.191406 C 254.550781 8.027344 224.070312 0 191.707031 0 C 85.828125 0 0 85.832031 0 191.707031 C 0 233.0625 13.09375 271.359375 35.363281 302.675781 L 103.480469 77.644531 L 122.78125 139.984375 L 63.882812 334.566406 C 66.480469 336.894531 69.140625 339.148438 71.863281 341.332031 L 127.851562 156.367188 L 147.152344 218.703125 L 103.753906 362.085938 C 130.09375 375.710938 160 383.417969 191.707031 383.417969 C 297.585938 383.417969 383.417969 297.585938 383.417969 191.707031 C 383.417969 151.207031 370.84375 113.640625 349.40625 82.691406 Z M 197.457031 313.230469 C 188.304688 313.230469 181.476562 307.0625 179.429688 300.382812 C 177.390625 293.703125 109.253906 72.074219 109.253906 72.074219 L 134.9375 72.078125 C 142.253906 72.078125 148.753906 76.410156 150.6875 82.519531 C 152.621094 88.628906 221.605469 313.230469 221.605469 313.230469 Z M 246.160156 313.179688 C 237.472656 313.179688 229.714844 306.542969 227.210938 298.085938 C 224.699219 289.628906 158.796875 72.078125 158.796875 72.078125 L 183.640625 72.078125 C 191.894531 72.078125 198.394531 76.847656 200.527344 83.820312 C 202.652344 90.789062 269.953125 313.1875 269.953125 313.1875 C 269.953125 313.1875 254.851562 313.179688 246.160156 313.179688 Z M 246.160156 313.179688 "/>
  </g>
</svg>

<svg xmlns="http://www.w3.org/2000/svg" viewBox="0 0 384 384"><path d="M349.406 82.691l-70.531 228.352-19.191-61.973 61.484-198.754a196.501 196.501 0 00-8.14-7.043L254.39 231.965l-19.196-62.012 46.098-147.762C254.551 8.027 224.07 0 191.707 0 85.828 0 0 85.832 0 191.707c0 41.356 13.094 79.652 35.363 110.969L103.48 77.645l19.301 62.34-58.898 194.581a190.99 190.99 0 007.98 6.766l55.989-184.965 19.3 62.336-43.398 143.383c26.34 13.625 56.246 21.332 87.953 21.332 105.879 0 191.711-85.832 191.711-191.711 0-40.5-12.574-78.066-34.012-109.016zm-151.949 230.54c-9.152 0-15.98-6.168-18.027-12.848-2.04-6.68-70.176-228.309-70.176-228.309l25.683.004c7.317 0 13.817 4.332 15.75 10.442 1.934 6.109 70.918 230.71 70.918 230.71zm48.703-.051c-8.687 0-16.445-6.637-18.95-15.094-2.51-8.457-68.413-226.008-68.413-226.008h24.844c8.254 0 14.754 4.77 16.886 11.742 2.125 6.97 69.426 229.368 69.426 229.368s-15.101-.008-23.793-.008zm0 0"/></svg>
